icons/16/inbox-filled.svg

<svg width="16" height="16" viewBox="0 0 16 16" xmlns="http://www.w3.org/2000/svg">
  <g clip-path="url(#clip0)">
    <path fill-rule="evenodd" clip-rule="evenodd" d="M4.41 1C3.71 1 3.077 1.417 2.8 2.06L0.06 8.456C0.0204001 8.54896 -8.24583e-06 8.64896 2.49926e-09 8.75V13.25C2.49926e-09 14.216 0.784 15 1.75 15H14.25C14.7141 15 15.1592 14.8156 15.4874 14.4874C15.8156 14.1592 16 13.7141 16 13.25V8.75C16.0001 8.64862 15.9797 8.54827 15.94 8.455L13.2 2.06C13.0649 1.74509 12.8403 1.47678 12.5541 1.28835C12.2679 1.09992 11.9327 0.999654 11.59 1H4.41ZM4.18 2.652C4.19921 2.60691 4.23126 2.56846 4.27215 2.54143C4.31305 2.51441 4.36098 2.5 4.41 2.5H11.59C11.69 2.5 11.781 2.56 11.82 2.652L14.113 8H11.25C11.1336 8 11.0187 8.02711 10.9146 8.07918C10.8104 8.13125 10.7199 8.20685 10.65 8.3L9.375 10H6.625L5.35 8.3C5.28014 8.20685 5.18955 8.13125 5.08541 8.07918C4.98127 8.02711 4.86643 8 4.75 8H1.887L4.18 2.652Z"/>
  </g>
  <defs>
    <clipPath id="clip0">
      <rect width="16" height="16"/>
    </clipPath>
  </defs>
</svg>

<svg width="16" height="16" viewBox="0 0 16 16" xmlns="http://www.w3.org/2000/svg">
  <path fill-rule="evenodd" clip-rule="evenodd" d="M4.41 1c-.7 0-1.333.417-1.61 1.06L.06 8.456A.75.75 0 000 8.75v4.5C0 14.216.784 15 1.75 15h12.5A1.75 1.75 0 0016 13.25v-4.5a.75.75 0 00-.06-.295L13.2 2.06A1.75 1.75 0 0011.59 1H4.41zm-.23 1.652a.25.25 0 01.23-.152h7.18c.1 0 .191.06.23.152L14.113 8H11.25a.75.75 0 00-.6.3L9.375 10h-2.75L5.35 8.3a.75.75 0 00-.6-.3H1.887L4.18 2.652z"/>
</svg>
